neru-light-classic/32x32/apps/simplify3d.svg

<?xml version="1.0" encoding="UTF-8" standalone="no"?>
<svg
   xmlns:dc="http://purl.org/dc/elements/1.1/"
   xmlns:cc="http://creativecommons.org/ns#"
   xmlns:rdf="http://www.w3.org/1999/02/22-rdf-syntax-ns#"
   xmlns:svg="http://www.w3.org/2000/svg"
   xmlns="http://www.w3.org/2000/svg"
   xmlns:sodipodi="http://sodipodi.sourceforge.net/DTD/sodipodi-0.dtd"
   xmlns:inkscape="http://www.inkscape.org/namespaces/inkscape"
   height="32"
   width="32"
   version="1"
   id="svg12"
   sodipodi:docname="simplify3d.svg"
   inkscape:version="0.92.2 2405546, 2018-03-11">
  <metadata
     id="metadata18">
    <rdf:RDF>
      <cc:Work
         rdf:about="">
        <dc:format>image/svg+xml</dc:format>
        <dc:type
           rdf:resource="http://purl.org/dc/dcmitype/StillImage" />
        <dc:title />
      </cc:Work>
    </rdf:RDF>
  </metadata>
  <defs
     id="defs16" />
  <sodipodi:namedview
     pagecolor="#ffffff"
     bordercolor="#666666"
     borderopacity="1"
     objecttolerance="10"
     gridtolerance="10"
     guidetolerance="10"
     inkscape:pageopacity="0"
     inkscape:pageshadow="2"
     inkscape:window-width="1680"
     inkscape:window-height="972"
     id="namedview14"
     showgrid="false"
     inkscape:zoom="6.7672329"
     inkscape:cx="-47.234031"
     inkscape:cy="39.53431"
     inkscape:window-x="0"
     inkscape:window-y="0"
     inkscape:window-maximized="1"
     inkscape:current-layer="svg12" />
  <path
     inkscape:connector-curvature="0"
     style="opacity:1;fill:#4d4d4d;fill-opacity:1;fill-rule:evenodd;stroke:none;stroke-width:1.03534329;stroke-linecap:round;stroke-linejoin:bevel;stroke-miterlimit:4;stroke-dasharray:none;stroke-dashoffset:0;stroke-opacity:1"
     d="m 7.472656,1.8974612 c -3.088651,0 -5.574219,2.487521 -5.574219,5.5761718 v 6.564453 l 4.671876,-2.572265 3.767578,2.074218 V 9.848633 l 5.787109,-3.1875 5.785156,3.1875 v 3.554688 l 3.519532,-1.9375 4.671875,2.572265 V 7.473633 c 0,-3.0886508 -2.487524,-5.5761718 -5.576172,-5.5761718 z"
     id="rect4497-3-32" />
  <path
     style="opacity:1;fill:#019cdf;fill-opacity:1;fill-rule:evenodd;stroke:none;stroke-width:1.03534329;stroke-linecap:round;stroke-linejoin:bevel;stroke-miterlimit:4;stroke-dasharray:none;stroke-dashoffset:0;stroke-opacity:1"
     d="M 30.101562,11.161719 25.429687,8.5894542 V 29.920899 c 2.637389,-0.444789 4.671875,-2.626793 4.671875,-5.394531 z"
     id="path998"
     inkscape:connector-curvature="0"
     sodipodi:nodetypes="cccsc" />
  <path
     style="opacity:1;fill:#4fa03f;fill-opacity:1;fill-rule:evenodd;stroke:none;stroke-width:1.03534329;stroke-linecap:round;stroke-linejoin:bevel;stroke-miterlimit:4;stroke-dasharray:none;stroke-dashoffset:0;stroke-opacity:1"
     d="M 21.910156,30.102539 V 6.9722664 L 16.125,3.7847664 V 30.102539 Z"
     id="path1003"
     inkscape:connector-curvature="0"
     sodipodi:nodetypes="ccccc" />
  <path
     style="opacity:1;fill:#8dc73f;fill-opacity:1;fill-rule:evenodd;stroke:none;stroke-width:1.03534329;stroke-linecap:round;stroke-linejoin:bevel;stroke-miterlimit:4;stroke-dasharray:none;stroke-dashoffset:0;stroke-opacity:1"
     d="m 16.125,3.7847664 -5.787109,3.1875 V 30.102539 H 16.125 Z"
     id="path1006"
     inkscape:connector-curvature="0"
     sodipodi:nodetypes="ccccc" />
  <path
     style="opacity:1;fill:#0057a7;fill-opacity:1;fill-rule:evenodd;stroke:none;stroke-width:1.03534329;stroke-linecap:round;stroke-linejoin:bevel;stroke-miterlimit:4;stroke-dasharray:none;stroke-dashoffset:0;stroke-opacity:1"
     d="m 25.429687,8.5894542 -3.519531,1.9374998 v 19.575585 h 2.615235 c 0.320911,0 0.598498,-0.130068 0.904296,-0.18164 z"
     id="path1009"
     inkscape:connector-curvature="0"
     sodipodi:nodetypes="cccscc" />
  <path
     style="opacity:1;fill:#652d90;fill-opacity:1;fill-rule:evenodd;stroke:none;stroke-width:1.03534329;stroke-linecap:round;stroke-linejoin:bevel;stroke-miterlimit:4;stroke-dasharray:none;stroke-dashoffset:0;stroke-opacity:1"
     d="M 10.337891,10.663672 6.570313,8.5894542 V 29.920899 c 0.305429,0.05147 0.58182,0.18164 0.902343,0.18164 h 2.865235 z"
     id="path1012"
     inkscape:connector-curvature="0"
     sodipodi:nodetypes="cccscc" />
  <path
     style="opacity:1;fill:#dd1a74;fill-opacity:1;fill-rule:evenodd;stroke:none;stroke-width:1.03534329;stroke-linecap:round;stroke-linejoin:bevel;stroke-miterlimit:4;stroke-dasharray:none;stroke-dashoffset:0;stroke-opacity:1"
     d="M 6.570313,8.5894542 1.898437,11.161719 v 13.364649 c 0,2.768127 2.034096,4.950032 4.671876,5.394531 z"
     id="path1015"
     inkscape:connector-curvature="0"
     sodipodi:nodetypes="ccscc" />
  <text
     xml:space="preserve"
     style="font-style:normal;font-weight:normal;font-size:13.79230881px;line-height:1.25;font-family:sans-serif;letter-spacing:0px;word-spacing:0px;fill:#f9f9f9;fill-opacity:1;stroke:none;stroke-width:0.34480771"
     x="6.9494438"
     y="21.43231"
     id="text873-1"><tspan
       sodipodi:role="line"
       id="tspan871-7"
       x="6.9494438"
       y="21.43231"
       style="font-style:normal;font-variant:normal;font-weight:bold;font-stretch:normal;font-family:Mont;-inkscape-font-specification:'Mont Bold';fill:#f9f9f9;stroke-width:0.34480771">3D</tspan></text>
</svg>

<svg xmlns="http://www.w3.org/2000/svg" height="32" width="32" version="1"><path d="M7.473 1.897a5.563 5.563 0 0 0-5.575 5.577v6.564l4.672-2.572 3.768 2.074V9.849l5.787-3.188L21.91 9.85v3.554l3.52-1.937 4.672 2.572V7.474a5.565 5.565 0 0 0-5.577-5.577z" fill="#4d4d4d" fill-rule="evenodd"/><path d="M30.102 11.162L25.43 8.589v21.332c2.637-.445 4.672-2.627 4.672-5.395z" fill="#019cdf" fill-rule="evenodd"/><path d="M21.91 30.103V6.973l-5.785-3.188v26.318z" fill="#4fa03f" fill-rule="evenodd"/><path d="M16.125 3.785l-5.787 3.187v23.13h5.787z" fill="#8dc73f" fill-rule="evenodd"/><path d="M25.43 8.59l-3.52 1.937v19.576h2.615c.321 0 .599-.13.905-.182z" fill="#0057a7" fill-rule="evenodd"/><path d="M10.338 10.664L6.57 8.589v21.332c.306.051.582.182.903.182h2.865z" fill="#652d90" fill-rule="evenodd"/><path d="M6.57 8.59l-4.672 2.572v13.364c0 2.768 2.035 4.95 4.672 5.395z" fill="#dd1a74" fill-rule="evenodd"/><text style="line-height:1.25" x="6.949" y="21.432" font-weight="400" font-size="13.792" font-family="sans-serif" letter-spacing="0" word-spacing="0" fill="#f9f9f9" stroke-width=".345"><tspan x="6.949" y="21.432" style="-inkscape-font-specification:'Mont Bold'" font-weight="700" font-family="Mont">3D</tspan></text></svg>
